X: 12
T: Kerfunten, The
C: Hammy Hamilton
Z: leprecawn
S: https://thesession.org/tunes/139#setting49761
R: jig
M: 6/8
L: 1/8
K: Gmaj
||:B3 BAG|d2d efg|d2d edB|A2 A DFA |
B3 BAG|d2d efg|d2d edB|AGF G3 :||
||:g3 gab|~e3 edB|~g3 gab|bag ~a3|
g3 gab|~e3 efg|d2d edB|AGF G3:|

